storage/app/icons/phosphoricons/duotone/chalkboard-duotone.svg

<svg xmlns="http://www.w3.org/2000/svg" fill="currentColor" viewBox="0 0 256 256"><path d="M192 80v88h-72v32H64V80Z" opacity=".2"/><path d="M240 192h-8V56a16 16 0 0 0-16-16H40a16 16 0 0 0-16 16v136h-8a8 8 0 0 0 0 16h224a8 8 0 0 0 0-16M40 56h176v136h-16v-24a8 8 0 0 0-8-8h-72a8 8 0 0 0-8 8v24H72V88h112v48a8 8 0 0 0 16 0V80a8 8 0 0 0-8-8H64a8 8 0 0 0-8 8v112H40Zm144 136h-56v-16h56Z"/></svg>

<svg xmlns="http://www.w3.org/2000/svg" viewBox="0 0 256 256" fill="currentColor"><path d="M192,80v88H120v32H64V80Z" opacity="0.2"/><path d="M240,192h-8V56a16,16,0,0,0-16-16H40A16,16,0,0,0,24,56V192H16a8,8,0,0,0,0,16H240a8,8,0,0,0,0-16ZM40,56H216V192H200V168a8,8,0,0,0-8-8H120a8,8,0,0,0-8,8v24H72V88H184v48a8,8,0,0,0,16,0V80a8,8,0,0,0-8-8H64a8,8,0,0,0-8,8V192H40ZM184,192H128V176h56Z"/></svg>
